icons/svg/seamark_big/landmark_spire_big.svg

<?xml version="1.0" encoding="UTF-8" standalone="no"?>
<svg
   xmlns:dc="http://purl.org/dc/elements/1.1/"
   xmlns:cc="http://creativecommons.org/ns#"
   xmlns:rdf="http://www.w3.org/1999/02/22-rdf-syntax-ns#"
   xmlns:svg="http://www.w3.org/2000/svg"
   xmlns="http://www.w3.org/2000/svg"
   xmlns:sodipodi="http://sodipodi.sourceforge.net/DTD/sodipodi-0.dtd"
   xmlns:inkscape="http://www.inkscape.org/namespaces/inkscape"
   width="1060"
   height="1060"
   id="svg2"
   version="1.1"
   inkscape:version="0.48.4 r9939"
   sodipodi:docname="landmark_minaret.svg">
  <defs
     id="defs13">
    <inkscape:path-effect
       effect="gears"
       id="path-effect3774"
       is_visible="true"
       teeth="6"
       phi="-1.2" />
    <inkscape:path-effect
       effect="bend_path"
       id="path-effect3772"
       is_visible="false"
       bendpath="m 95.790098,316.51174 c 144.429032,-206.42506 223.313032,-11.7428 339.548092,0"
       prop_scale="1.19"
       scale_y_rel="false"
       vertical="false"
       bendpath-nodetypes="cc" />
  </defs>
  <sodipodi:namedview
     pagecolor="#ffffff"
     bordercolor="#666666"
     borderopacity="1"
     objecttolerance="10"
     gridtolerance="10"
     guidetolerance="10"
     inkscape:pageopacity="0"
     inkscape:pageshadow="2"
     inkscape:window-width="1920"
     inkscape:window-height="1004"
     id="namedview11"
     showgrid="false"
     inkscape:zoom="0.8137931"
     inkscape:cx="548.45375"
     inkscape:cy="597.26878"
     inkscape:window-x="1680"
     inkscape:window-y="0"
     inkscape:window-maximized="1"
     inkscape:current-layer="svg2"
     inkscape:snap-object-midpoints="true"
     inkscape:snap-center="true"
     inkscape:snap-global="false" />
  <metadata
     id="metadata2975">image/svg+xmlen<rdf:RDF>
  <cc:Work
     rdf:about="">
    <dc:format>image/svg+xml</dc:format>
    <dc:type
       rdf:resource="http://purl.org/dc/dcmitype/StillImage" />
    <dc:title></dc:title>
  </cc:Work>
</rdf:RDF>
</metadata>
  <path
     sodipodi:type="inkscape:offset"
     inkscape:radius="32.191681"
     inkscape:original="M 509.625 236.65625 A 8.506998 10.552554 0 0 0 508.78125 236.71875 A 8.506998 10.552554 0 0 0 501.59375 245.28125 L 468.21875 452.15625 A 9.6310156 9.6310156 0 0 0 466.40625 457.90625 L 466.40625 714.40625 A 9.640625 9.640625 0 0 0 466.5625 716.03125 C 465.27545 718.77354 464.24838 721.63221 463.5 724.625 L 418.6875 724.625 L 418.6875 747.65625 L 463.5 747.65625 C 468.67922 768.36784 487.48711 783.8125 509.75 783.8125 C 532.01288 783.8125 550.84818 768.36784 556.03125 747.65625 L 600.8125 747.65625 L 600.8125 724.625 L 556.03125 724.625 C 555.29048 721.6649 554.2371 718.84038 552.96875 716.125 A 9.6310156 9.6310156 0 0 0 553.09375 714.40625 L 553.09375 457.90625 A 9.6310156 9.6310156 0 0 0 551.46875 452.4375 L 518.09375 245.28125 A 8.506998 10.552554 0 0 0 509.625 236.65625 z M 509.84375 300.34375 L 533.5 447.75 L 486.1875 447.75 L 509.84375 300.34375 z M 485.6875 468.84375 L 533.84375 468.84375 L 533.84375 695.0625 C 526.76291 690.88845 518.52227 688.46875 509.75 688.46875 C 500.99287 688.46875 492.75748 690.87053 485.6875 695.03125 L 485.6875 468.84375 z M 509.75 705.625 C 519.96943 705.625 528.93924 710.5578 534.46875 718.1875 A 9.6310156 9.6310156 0 0 0 536.46875 721.34375 C 538.88366 725.72184 540.28125 730.73584 540.28125 736.125 C 540.28125 753.07955 526.70455 766.65625 509.75 766.65625 C 492.79545 766.65625 479.25 753.07955 479.25 736.125 C 479.25 730.39757 480.79826 725.09351 483.5 720.53125 A 9.640625 9.640625 0 0 0 484.75 718.53125 C 490.25045 710.69765 499.37123 705.625 509.75 705.625 z "
     style="font-size:medium;font-style:normal;font-variant:normal;font-weight:normal;font-stretch:normal;text-indent:0;text-align:start;text-decoration:none;line-height:normal;letter-spacing:normal;word-spacing:normal;text-transform:none;direction:ltr;block-progression:tb;writing-mode:lr-tb;text-anchor:start;baseline-shift:baseline;opacity:0.372;color:#000000;fill:#e4e4e4;fill-opacity:1;fill-rule:nonzero;stroke:#a35151;stroke-width:0;stroke-linecap:round;stroke-linejoin:miter;stroke-miterlimit:4;stroke-opacity:1;stroke-dasharray:none;stroke-dashoffset:0;marker:none;visibility:visible;display:inline;overflow:visible;enable-background:accumulate;font-family:Sans;-inkscape-font-specification:Sans"
     id="path4124"
     d="m 509.125,204.46875 0,0.28125 c -0.40011,-0.15862 -0.51824,-0.27333 0,-0.28125 z m 0,0 c 0.72464,0.007 -5.69001,0.48027 -4.6875,0.34375 A 32.1949,32.1949 0 0 0 503.25,205 c 3.1821,-0.55396 -16.06106,6.56207 -13.625,5.09375 2.43606,-1.46832 -11.70648,10.55359 -10.21875,8.78125 1.48773,-1.77234 -7.21553,12.22537 -6.46875,10.5 0.7158,-1.6538 -2.95582,11.10466 -3.0625,10.78125 l -0.0625,0 -0.0625,0.46875 -32.78125,203.125 c -0.15243,0.22422 -0.90341,1.75716 -0.8125,1.46875 0.69707,-2.21141 -1.66151,13.81389 -1.84375,12.6875 l -0.0937,0 0,0.40625 0,234.125 -15.53125,0 A 32.1949,32.1949 0 0 0 386.5,724.625 l 0,23.03125 a 32.1949,32.1949 0 0 0 32.1875,32.1875 l 24.3125,0 C 457.33171,801.64454 481.98223,816 509.75,816 c 27.78329,0 52.47431,-14.33358 66.8125,-36.15625 l 24.25,0 A 32.1949,32.1949 0 0 0 633,747.65625 l 0,-23.03125 a 32.1949,32.1949 0 0 0 -32.1875,-32.1875 l -15.53125,0 0,-234.15625 0,-0.375 -0.0625,0 c -0.15789,1.10171 -2.28078,-14.13303 -1.65625,-12.03125 0.0868,0.29207 -0.6222,-1.23984 -0.78125,-1.5 L 549.9375,240.5 c 0.001,0.008 -0.001,-0.0701 0,-0.0625 l -0.0625,-0.28125 -0.0312,0 c -0.007,0.8359 -4.6196,-14.04828 -3.71875,-12.15625 0.92609,1.94504 -9.94566,-13.44973 -8.03125,-11.5 1.63139,1.66149 -10.89865,-6.78084 -12.75,-8.5 -2.05973,-0.0185 -13.89286,-2.38059 -16.125,-3.21875 l 0,-0.3125 c 0.0203,-2.5e-4 -0.10817,-1.4e-4 -0.0937,0 z" />
  <path
     sodipodi:type="arc"
     style="color:#000000;fill:none;stroke:#000000;stroke-width:30.33652306;stroke-linecap:butt;stroke-linejoin:miter;stroke-miterlimit:4;stroke-opacity:1;stroke-dasharray:none;stroke-dashoffset:0;marker:none;visibility:visible;display:inline;overflow:visible;enable-background:accumulate"
     id="path2985"
     sodipodi:cx="510.26483"
     sodipodi:cy="737.74365"
     sodipodi:rx="69.120766"
     sodipodi:ry="69.120766"
     d="m 579.3856,737.74365 a 69.120766,69.120766 0 1 1 -138.24153,0 69.120766,69.120766 0 1 1 138.24153,0 z"
     transform="matrix(0.56558888,0,0,0.56558888,221.05031,318.17685)" />
  <path
     style="font-size:medium;font-style:normal;font-variant:normal;font-weight:normal;font-stretch:normal;text-indent:0;text-align:start;text-decoration:none;line-height:normal;letter-spacing:normal;word-spacing:normal;text-transform:none;direction:ltr;block-progression:tb;writing-mode:lr-tb;text-anchor:start;baseline-shift:baseline;color:#000000;fill:#000000;fill-opacity:1;stroke:none;stroke-width:30.00000191;marker:none;visibility:visible;display:inline;overflow:visible;enable-background:accumulate;font-family:Sans;-inkscape-font-specification:Sans"
     d="m 418.58715,723.91311 0,23.04878 57.06673,0 0,-23.04878 z m 125.04022,0 0,23.04878 57.06673,0 0,-23.04878 z"
     id="path3754"
     inkscape:connector-curvature="0"
     sodipodi:nodetypes="cccccccccc" />
  <path
     transform="matrix(9.6300523,0,0,8.5951889,90.743149,302.50227)"
     style="fill:none;stroke:#000000;stroke-width:2.11697936;stroke-linecap:round;stroke-linejoin:round;stroke-miterlimit:10"
     d="m 47,18 0,29.84179 m -7,0 L 40,18"
     id="polyline3"
     inkscape:connector-curvature="0"
     sodipodi:nodetypes="cccc" />
  <polygon
     class="st0"
     points="40,1 36,21 44,21 "
     id="polygon5"
     transform="matrix(8.5061474,0,0,10.551499,169.49181,236.01431)"
     style="fill:none;stroke:#000000;stroke-width:2;stroke-linejoin:round;stroke-miterlimit:10" />
</svg>

<svg width="1060" height="1060" viewBox="0 0 1060 1060" fill="none" xmlns="http://www.w3.org/2000/svg">
<path opacity="0.372" d="M509.125 204.469V204.75C508.725 204.591 508.607 204.477 509.125 204.469ZM509.125 204.469C509.85 204.476 503.435 204.949 504.438 204.813C504.041 204.868 503.645 204.93 503.25 205C506.432 204.446 487.189 211.562 489.625 210.094C492.061 208.625 477.919 220.647 479.406 218.875C480.894 217.103 472.191 231.1 472.938 229.375C473.653 227.721 469.982 240.48 469.875 240.156H469.812L469.75 240.625L436.969 443.75C436.816 443.974 436.065 445.507 436.156 445.219C436.853 443.007 434.495 459.033 434.312 457.906H434.219V458.313V692.438H418.688C410.151 692.439 401.966 695.831 395.93 701.867C389.894 707.903 386.502 716.089 386.5 724.625V747.656C386.502 756.192 389.894 764.378 395.93 770.414C401.966 776.45 410.151 779.842 418.688 779.844H443C457.332 801.645 481.982 816 509.75 816C537.533 816 562.224 801.666 576.562 779.844H600.812C609.349 779.842 617.534 776.45 623.57 770.414C629.606 764.378 632.998 756.192 633 747.656V724.625C632.998 716.089 629.606 707.903 623.57 701.867C617.534 695.831 609.349 692.439 600.812 692.438H585.281V458.281V457.906H585.219C585.061 459.008 582.938 443.773 583.562 445.875C583.649 446.167 582.94 444.635 582.781 444.375L549.938 240.5C549.939 240.508 549.936 240.43 549.938 240.438L549.875 240.156H549.844C549.837 240.992 545.224 226.108 546.125 228C547.051 229.945 536.179 214.55 538.094 216.5C539.725 218.162 527.195 209.719 525.344 208C523.284 207.982 511.451 205.619 509.219 204.781V204.469C509.239 204.469 509.111 204.469 509.125 204.469H509.125Z" fill="#E4E4E4"/>
<path d="M548.745 735.437C548.745 740.571 547.735 745.655 545.771 750.399C543.806 755.143 540.927 759.453 537.297 763.084C533.666 766.715 529.356 769.596 524.613 771.561C519.869 773.526 514.785 774.537 509.651 774.537C504.516 774.537 499.432 773.526 494.688 771.561C489.945 769.596 485.635 766.715 482.005 763.084C478.374 759.453 475.495 755.143 473.531 750.399C471.566 745.655 470.556 740.571 470.557 735.437C470.556 730.302 471.566 725.218 473.531 720.474C475.495 715.73 478.374 711.42 482.005 707.789C485.635 704.158 489.945 701.277 494.688 699.312C499.432 697.347 504.516 696.336 509.651 696.336C514.785 696.336 519.869 697.347 524.613 699.312C529.356 701.277 533.666 704.158 537.297 707.789C540.927 711.42 543.806 715.73 545.771 720.474C547.735 725.218 548.745 730.302 548.745 735.437Z" stroke="black" stroke-width="17.158"/>
<path d="M418.587 723.913V746.962H475.654V723.913H418.587ZM543.627 723.913V746.962H600.694V723.913H543.627Z" fill="black"/>
<path d="M475.945 713.712V457.216M543.356 457.216V713.712V457.216Z" stroke="black" stroke-width="19.2601" stroke-miterlimit="10" stroke-linecap="round" stroke-linejoin="round"/>
<path d="M509.737 246.566L475.713 457.596H543.762L509.737 246.566Z" stroke="black" stroke-width="18.9476" stroke-miterlimit="10" stroke-linejoin="round"/>
</svg>
